X: 45
T:Pet of the Pipers
M:6/8
L:1/8
Q:120
K:A
E|"A"A2A cBA|ecA aec|A2A cBA|"E"BGE dBG|
"A"A2A cBA|ecA aec|"D"fga "A"ecA|"E"dBG "A"A2::
e|"A"aga "D"fga|"E"gba gfe|"D"aga fga|"E"bag "A"a2{ef}g|
"D"agf "A"edc|"D".fed "A"cBA|"D"fga "A"ecA|"E"dBG "A"A2:||
